src/icons/hds/ui/link.svg

<svg xmlns="http://www.w3.org/2000/svg" width="24" height="24" viewBox="0 0 24 24">
  <g fill="none" fill-rule="evenodd">
    <rect width="24" height="24"/>
    <path fill="currentColor" d="M11.4890322,6.42050151 L13.5632449,4.36474354 C14.4163843,3.51160407 15.5250852,3.03036321 16.6982566,3.00138357 C17.8714281,2.97240393 18.9576931,3.39942482 19.7697002,4.2114319 C20.5817073,5.02343898 21.0276503,6.1092366 20.9986706,7.28240803 C20.970951,8.40457201 20.5294422,9.4677497 19.7444741,10.3047072 L19.6353107,10.4174198 L16.2033632,13.8493672 C15.3502238,14.7025067 14.2415229,15.1837476 13.0683515,15.2127272 C11.89518,15.2417069 10.808915,14.814686 9.99690791,14.0026789 L10.1968868,13.8078958 C10.5504308,13.4595475 11.1936866,12.8145598 11.4317334,12.5678534 C12.2723674,13.4272894 13.792428,13.4164136 14.7324077,12.5663386 L14.8187929,12.4841864 L18.2133635,9.03425167 C19.1634506,8.08416453 19.2013111,6.55147281 18.2970305,5.6471922 C17.4563965,4.78775626 15.9363359,4.79863198 14.9963562,5.64870705 L14.909971,5.73085923 L12.8546805,7.78614978 L11.4890322,6.42050151 Z M4.28785837,13.6216753 L7.60134119,10.3267035 C9.28632125,8.62321245 12.022859,8.60778744 13.7073573,10.2922858 L13.1397125,10.867748 C12.7974908,11.2112726 12.4305721,11.5755855 12.3220155,11.6776275 C11.4424639,10.798076 9.99792524,10.7794151 9.07475549,11.6155214 L8.98976892,11.6964104 L5.67618117,15.0099981 C4.75886027,15.927319 4.75036077,17.4352072 5.65739834,18.3422447 C6.53694992,19.2217963 7.98148861,19.2404572 8.90465837,18.4043509 L8.98964493,18.3234619 L10.9741583,16.3204375 L12.3438652,17.7088652 L10.3594568,19.6932737 C9.5170192,20.5357113 8.3976516,20.970173 7.29931334,20.9764311 C6.20097507,20.982555 5.08638687,20.5607326 4.25339319,19.7277389 C2.6012327,18.0938461 2.58429783,15.4301268 4.19144704,13.7210908 L4.28785837,13.6216753 Z"/>
  </g>
</svg>

<svg viewBox="0 0 24 24" role="img" xmlns="http://www.w3.org/2000/svg"><g fill="none" fill-rule="evenodd"><path d="M0 0h24v24H0z"/><path d="M11.489 6.42l2.074-2.055A4.575 4.575 0 0116.698 3a4.142 4.142 0 013.072 1.21 4.157 4.157 0 011.229 3.071 4.565 4.565 0 01-1.255 3.023l-.109.112-3.432 3.432a4.575 4.575 0 01-3.135 1.364 4.142 4.142 0 01-3.071-1.21l.2-.195c.353-.348.997-.993 1.235-1.24.84.86 2.36.848 3.3-.002l.087-.082 3.394-3.45c.95-.95.988-2.483.084-3.387-.84-.86-2.36-.848-3.3.002l-.087.082-2.055 2.055-1.366-1.365zm-7.201 7.202L7.6 10.327c1.685-1.704 4.422-1.72 6.106-.035l-.567.576c-.343.343-.71.708-.818.81-.88-.88-2.324-.899-3.247-.062l-.085.08-3.314 3.314c-.917.917-.926 2.425-.019 3.332.88.88 2.324.898 3.248.062l.085-.08 1.984-2.004 1.37 1.389-1.985 1.984a4.38 4.38 0 01-3.06 1.283 4.282 4.282 0 01-3.046-1.248c-1.652-1.634-1.669-4.298-.062-6.007l.097-.1z" fill="currentColor"/></g></svg>
